app/assets/images/payment_icons/solana.svg

<svg xmlns="http://www.w3.org/2000/svg" width="38" height="24" viewBox="0 0 38 24" role="img" aria-labelledby="pi-solana"><title id="pi-solana">Solana</title><defs><linearGradient gradientTransform="matrix(0.149588 0 0 0.149588 11.4458 5.41812)" gradientUnits="userSpaceOnUse" id="pi-solana-linear-gradient-1" x1="8.52558" x2="88.9933" y1="90.0973" y2="-3.01622"><stop offset="0.08" stop-color="#9945ff"/><stop offset="0.3" stop-color="#8752f3"/><stop offset="0.5" stop-color="#5497d5"/><stop offset="0.6" stop-color="#43b4ca"/><stop offset="0.72" stop-color="#28e0b9"/><stop offset="0.97" stop-color="#19fb9b"/></linearGradient></defs><g><path d="M35 0L3 0C1.34315-8.9407e-08 1.60771e-07 1.34315-8.9407e-08 3L-8.9407e-08 21C-5.36442e-07 22.6569 1.34315 24 3 24L35 24C36.6569 24 38 22.6569 38 21L38 3C38 1.34315 36.6569-1.6183e-07 35 0Z" fill="#000000" fill-rule="evenodd" opacity="0.07" stroke="none"/><path d="M35 1C36.1046 1 37 1.89543 37 3L37 21C37 22.1046 36.1046 23 35 23L3 23C1.89543 23 1 22.1046 1 21L1 3C1 1.89543 1.89543 1 3 1L35 1" fill="#ffffff" fill-rule="evenodd" opacity="1" stroke="none"/><path d="M26.4764 15.7968L23.9823 18.4026C23.9281 18.4592 23.8625 18.5043 23.7896 18.5352C23.7167 18.566 23.638 18.5819 23.5586 18.5819L11.7353 18.5819C11.6789 18.5819 11.6237 18.5658 11.5766 18.5357C11.5294 18.5055 11.4923 18.4626 11.4698 18.4122C11.4473 18.3618 11.4404 18.3061 11.45 18.252C11.4596 18.1978 11.4852 18.1475 11.5236 18.1074L14.0196 15.5016C14.0737 15.4451 14.1391 15.4001 14.2117 15.3692C14.2844 15.3384 14.3628 15.3224 14.4421 15.3223L26.2647 15.3223C26.3211 15.3223 26.3762 15.3383 26.4235 15.3685C26.4706 15.3986 26.5077 15.4415 26.5303 15.4919C26.5527 15.5423 26.5596 15.598 26.55 15.6522C26.5404 15.7064 26.5149 15.7566 26.4764 15.7968ZM23.9823 10.5495C23.9281 10.4929 23.8625 10.4477 23.7896 10.4169C23.7167 10.3861 23.638 10.3702 23.5586 10.3702L11.7353 10.3702C11.6789 10.3702 11.6237 10.3863 11.5766 10.4164C11.5294 10.4465 11.4923 10.4894 11.4698 10.5398C11.4473 10.5903 11.4404 10.646 11.45 10.7001C11.4596 10.7543 11.4852 10.8045 11.5236 10.8447L14.0196 13.4505C14.0737 13.507 14.1391 13.552 14.2117 13.5829C14.2844 13.6137 14.3628 13.6297 14.4421 13.6298L26.2647 13.6298C26.3211 13.6298 26.3762 13.6137 26.4235 13.5836C26.4706 13.5535 26.5077 13.5106 26.5303 13.4602C26.5527 13.4097 26.5596 13.354 26.55 13.2999C26.5404 13.2457 26.5149 13.1955 26.4764 13.1553L23.9823 10.5495ZM11.7353 8.67772L23.5586 8.67772C23.638 8.67775 23.7167 8.66187 23.7896 8.63102C23.8625 8.60018 23.9281 8.55505 23.9823 8.49844L26.4764 5.89265C26.5149 5.85246 26.5404 5.8022 26.55 5.74804C26.5596 5.69388 26.5527 5.63817 26.5303 5.58777C26.5077 5.53736 26.4706 5.49446 26.4235 5.46432C26.3762 5.43418 26.3211 5.41813 26.2647 5.41812L14.4421 5.41812C14.3628 5.41826 14.2844 5.43423 14.2117 5.46507C14.1391 5.49591 14.0737 5.54095 14.0196 5.5974L11.5243 8.2032C11.4858 8.24333 11.4602 8.29355 11.4507 8.34764C11.4411 8.40175 11.4479 8.45741 11.4703 8.50779C11.4927 8.55817 11.5297 8.60107 11.5768 8.63126C11.6239 8.66145 11.679 8.67759 11.7353 8.67772Z" fill="url(#pi-solana-linear-gradient-1)" fill-rule="evenodd" opacity="1" stroke="none"/></g></svg>

<svg xmlns="http://www.w3.org/2000/svg" width="38" height="24" aria-labelledby="pi-solana"><defs><linearGradient gradientTransform="matrix(.14959 0 0 .14959 11.446 5.418)" gradientUnits="userSpaceOnUse" id="a" x1="8.526" x2="88.993" y1="90.097" y2="-3.016"><stop offset=".08" stop-color="#9945ff"/><stop offset=".3" stop-color="#8752f3"/><stop offset=".5" stop-color="#5497d5"/><stop offset=".6" stop-color="#43b4ca"/><stop offset=".72" stop-color="#28e0b9"/><stop offset=".97" stop-color="#19fb9b"/></linearGradient></defs><g fill-rule="evenodd"><path d="M35 0H3a3 3 0 0 0-3 3v18a3 3 0 0 0 3 3h32a3 3 0 0 0 3-3V3a3 3 0 0 0-3-3Z" opacity=".07"/><path d="M35 1a2 2 0 0 1 2 2v18a2 2 0 0 1-2 2H3a2 2 0 0 1-2-2V3a2 2 0 0 1 2-2h32" fill="#fff"/><path d="m26.476 15.797-2.494 2.606a.58.58 0 0 1-.423.179H11.735a.295.295 0 0 1-.158-.046.285.285 0 0 1-.107-.124.275.275 0 0 1 .054-.305l2.496-2.605a.58.58 0 0 1 .422-.18h11.823c.056 0 .111.016.159.046.047.03.084.073.106.124a.276.276 0 0 1-.054.305Zm-2.494-5.248a.579.579 0 0 0-.423-.179H11.735a.295.295 0 0 0-.158.046.275.275 0 0 0-.053.428l2.496 2.607a.58.58 0 0 0 .422.179h11.823a.296.296 0 0 0 .159-.046.276.276 0 0 0 .053-.428l-2.495-2.607ZM11.735 8.678H23.56a.593.593 0 0 0 .423-.18l2.494-2.605a.28.28 0 0 0 .054-.305.285.285 0 0 0-.107-.124.296.296 0 0 0-.158-.046H14.442a.593.593 0 0 0-.422.18l-2.496 2.605a.278.278 0 0 0 .053.428c.047.03.102.047.158.047Z" fill="url(#a)"/></g></svg>
